X: 1
T: Rosh Hashana Tune
M: 4/4
L: 1/8
R: khusidl, freylach
S: printed MS of unknown origin, "16" handwritten at the top right
Z: 2010 John Chambers <jc:trillian.mit.edu>
K: DPhr^F
|: "D"=B,C D2 D2 D2 | DE F2 F2 F2 | TF3 E TF3 E | DE DE FE DC |
|  "D"=B,C D2 D2 D2 | DE F2 F2 F2 | "Cm"=B,C DE FG FE |1 "D"D8 :|2 "D"D2 D2 E2 F2 ||
[| "Gm"G8 | G8 | G4 G4 | G4 G4 \
| "Gm"(3G2D2G2 (3B2A2G2 | "D"^F3 | "D"(3F2D2F2 (3A2G2F2 | "Gm"G8 \
| "Gm"(3G2D2G2 (3B2A2G2 | "Gm"(3G2D2G2 (3B2A2G2 | z2 d2 ^c2 d2 | B2 A2 G2 F2 |]
[| "Gm"G8 | G8 | G4 G4 | G4 G4 \
| "Gm"(3G2D2G2 (3B2A2G2 | "D"^F3 | "D"(3F2D2F2 (3A2G2F2 | "Gm"G4 "da Capo"FEDC |]
